X:17
T:Cansoun de Magali
T:Chanson de Magali
M:6/8
L:1/8
K:Bb
%%continueall 1
ddd d2c | f2e dcHB | ccc cd2 | (edc) HB3 ::
FBd (f2g) | (f2e) d2d | (dcd) f2e | c6 |
FBd (f2g) | (f2e) dcd | fec B3 |]
%%newpage
%%text Un peu de musique mdivale et Renaissance ...
